usr/share/icons/biglinux-icons-material-dark/16/actions/document-edit-sign-encrypt.svg

<svg version="1.1" viewBox="0 0 16 16" xmlns="http://www.w3.org/2000/svg">
 <defs>
  <style id="current-color-scheme" type="text/css">.ColorScheme-Text {
        color:#dedede;
      }</style>
 </defs>
 <path class="ColorScheme-Text" d="m11.5 9c-0.82843 0-1.5 0.67157-1.5 1.5v1.5h-1v3h5v-3h-1v-1.5c0-0.82843-0.67157-1.5-1.5-1.5zm0 1c0.27614 0 0.5 0.22386 0.5 0.5v1.5h-1v-1.5c0-0.27614 0.22386-0.5 0.5-0.5z" fill="currentColor"/>
 <path d="m4 1c-1.108 0-2 0.892-2 2v10c0 1.108 0.892 2 2 2h4v-1h-4c-0.554 0-1-0.446-1-1v-10c0-0.554 0.446-1 1-1h4v5h5v1h1v-2l-5-5h-1zm5 1.4141 3.5859 3.5859h-3.5859z" class="ColorScheme-Text" fill="currentColor"/>
</svg>

<svg xmlns="http://www.w3.org/2000/svg" viewBox="0 0 16 16">
<defs>
<style id="current-color-scheme" type="text/css">
.ColorScheme-Text{color:#dedede}
</style>
</defs>
<path fill="currentColor" d="M11.5 9a1.5 1.5 0 0 0-1.5 1.5V12H9v3h5v-3h-1v-1.5A1.5 1.5 0 0 0 11.5 9m0 1a.5.5 0 0 1 .5.5V12h-1v-1.5a.5.5 0 0 1 .5-.5" class="ColorScheme-Text"/>
<path fill="currentColor" d="M4 1c-1.108 0-2 .892-2 2v10c0 1.108.892 2 2 2h4v-1H4c-.554 0-1-.446-1-1V3c0-.554.446-1 1-1h4v5h5v1h1V6L9 1H8zm5 1.414L12.586 6H9z" class="ColorScheme-Text"/>
</svg>
